X: 415
T: Bir Söz Dedi Cânân ki
C: Münir Nurettin Selçuk
O: Turkey
F: http://compmusic.upf.edu/node/140
N: nisaburek--sarki--turkaksagi--bir_soz_dedi--munir_nurettin_selcuk
N: makam= nisaburek
N: form= sarki
N: usul= turkaksagi = 5/8
M: 5/8
L: 1/16
K: C ^9/8f ^3/4c ^3/4g 
Q: 1/4=120
%%MIDI tuningsystem comma53
A4 e2d2 c2 | d2 e2f2 e2d2  | e2a2 g2f2 e2 | \
w:  ARANAĞME  |   |   | 
ed cde4z2  | A4 e2d2 c2 | 
w:   |   | 
d2 e2f2 e2d2  | =g2f2 e2d2 c2 | BA BcA4z2  | \
w:   |   |   | 
A4 e4 z2 | d2 f2e2 e2d2  | 
w:  Bir  söz   |  de di  câ  | 
c2A2 B2c2 d2 | c2 BcA4z2  | edcd e4 z2 | \
w:  nân   |  ki  ke *  ra  |  met   | 
f2 g2a2 f2e2  | 
w:   | 
e2e2 d2c2 fe | ed cBA6  | A4 e4 z2 | d2 f2e2 e2d2  | \
w:  var_ i çin  |  de   SAZ  |  Bir  söz   |  de di  câ  | 
c2A2 B2c2 d2 | 
w:  nân   | 
c2 BcA4z2  | edcd e4 z2 | f2 g2a2 f2e2  | \
w:  ki  ke *  ra  |  met   |   | 
e2e2 d2c2 fe | 
w:  var_ i çin  | 
e3/2d/ cde4z2  | e2fg a4 f2 | e2 e2{f}e2 d2c2  | \
w:  de   SAZ  |  Dün  *  *  gi  |  ce ye  *  da  | 
B2c2 d2e2 dc | 
w:  ir   | 
{e}dc {d}cBB4z2  | (3c2B2c2 A4 z2 | (3e2^d2f2e4=d2  | \
w:  *  bir  *  *  i *  şa  |  ret  |   | 
c2cB (3cBAB2 c2 | 
w:  var_ i *  çin  | 
A4e3/2d/ cde2  | e2fg a4 f2 | e2 e2{f}e2 d2c2  | \
w:  de   SAZ  |  Dün  *  *  gi  |  ce ye  *  da  | 
B2c2 d2e2 dc | 
w:  ir   | 
{e}dc {d}cBB4z2  | (3c2B2c2 A4 z2 | (3e2^d2f2e4=d2  | \
w:  *  bir  *  *  i *  şa  |  ret  |   | 
c2cB (3cBAB2 c2 | 
w:  var_ i *  çin  | 
A4d4z2  | A4 d4 dc | cB Bcd4z2  | d2dc c2cd cB | 
w:  de   SAZ  |  Mey ha  |  ne  *  mu *  kas  |  sî   | 
cd cBc3/2B/ A2z2  | edcd e4 z2 | f2 g2a2 f2e2  | \
w:  gö *  rü *  nür   |  taş  |  taş  | 
e2e2 edc2 fe | 
w:  ra dan_ am  | 
e4A3/2B/ cde2  | e2fg a4 f2 | e2 e2{f}e2 d2c2  | \
w:  ma   SAZ  |  Dün  *  *  gi  |  ce ye  *  da  | 
B2c2 d2e2 dc | 
w:  ir   | 
{e}dc {d}cBB4z2  | (3c2B2c2 A4 z2 | (3e2^d2f2e4=d2  | \
w:  *  bir  *  *  i *  şa  |  ret  |   | 
c2cB (3cBAB2 c2 | 
w:  var_ i *  çin  | 
A4e3/2d/ cde2  | e2fg a4 f2 | e2 e2{f}e2 d2c2  | \
w:  de   SAZ  |  Dün  *  *  gi  |  ce ye  *  da  | 
B2c2 d2e2 dc | 
w:  ir   | 
{e}dc {d}cBB4z2  | (3c2B2c2 A4 z2 | (3e2^d2f2e4=d2  | \
w:  *  bir  *  *  i *  şa  |  ret  |   | 
c2cB (3cBAB2 c2 | 
w:  var_ i *  çin  | 
A4a4z2  | e4 a4 ag | gf fga4z2  | b2a2 d'2=c'2 b2 | \
w:   |  Ey vah   |  *  *  *  o  üç   |  çif  | 
ba aba=g ^f^3/4e^9/8f2  | 
w:  te  *  ka *  yık   | 
ag^f^3/4e f2g2 a2 | g2 agag ^f^3/4ef2  | \
w:  al  |   | 
a2a2 g2a2 {c'}ba | 
w:  dı  ka ra  | 
a4ba gab2  | a3b b4 ba | b2 =c'bb2 a2=g2  | \
w:  rım   SAZ  |  Şar *  kı   |  o ku *  yup   | 
ab=c'2 d'c'ba a=g | 
w:  geç  | 
=g^3/4f fee4z2  | fefg e4 z2 | f2 g2a2 f2e2  | \
w:  ti  *  bir  *  â  |  fet   |  fet   | 
e2e2 d2c2 fe | 
w:  var_ i çin  | 
e4AB cde2  | e2fg a4 f2 | e2 e2{f}e2 d2c2  | \
w:  de   SAZ  |  Şar *  *  kı   |  o ku *  yup   | 
B2c2 d2e2 dc | 
w:  geç  | 
{e}dc {d}cBB4z2  | (3c2B2c2 A4 z2 | (3e2^d2f2e4=d2  | \
w:  *  ti  *  *  bir_ *  â  |  fet   |   | 
c2cB (3cBAB2 c2 | 
w:  var_ i *  çin  | 
A4d4z2  | d4 d4 _3/4e2 | dc Bcd4z2  | d2_3/4e2 d2e2 ed | \
w:  SAZ  |  Ey  şuh   |  *  *  Ne *  di  |  mâ   | 
d^2/4c cBB4z2  | 
w:  i le  *  *  bir   | 
d{e}d^2/4cB c3/2B/c2 z2 | d_3/4e dcd2 e2f2  | \
w:  sey  |  sey  | 
d2_3/4e2 d2c2 ed | 
w:  rin_ i şit  | 
d4_3/4e3/2d/ ced2  | d3_3/4e e4 ed | \
w:  tik    |  Ten *  ha  | 
d^2/4c cBc4z2  | d2cB c2d2 e2 | 
w:  ca  *  va *  rıp   |  Gök  | 
cB BAA4z2  | edcd e4 z2 | f2 g2a2 f2e2  | \
w:  su *  ya  *  iş  |  ret   |  ret   | 
e2e2 d2c2 fe | 
w:  var_ i çin  | 
e4AB cde2  | e2fg a4 f2 | e2 e2{f}e2 d2c2  | \
w:  de   SAZ  |  Şar *  *  kı   |  o ku *  yup   | 
B2c2 d2e2 dc | 
w:  geç  | 
{e}dc {d}cBB4z2  | (3c2B2c2 A4 z2 | (3e2^d2f2e4=d2  | \
w:  *  ti  *  *  bir_ *  â  |  fet   |   | 
c2cB (3cBAB2 c2 | 
w:  var_ i *  çin  | 
A4|
w:  SAZ  | 


